build/documents/DocViewSolid.svg

<svg xmlns="http://www.w3.org/2000/svg" fill="none" viewBox="0 0 24 24" focusable="false"><path d="M0 0H24V24H0z"/><path fill="#74767B" fill-rule="evenodd" d="M20.0001 6C20.0001 4.34315 18.6569 3 17.0001 3L7.00684 3C5.34998 3 4.00684 4.34315 4.00684 6L4.00684 18C4.00684 19.6569 5.34998 21 7.00684 21L17.0001 21C18.6569 21 20.0001 19.6569 20.0001 18L20.0001 6ZM12.0034 8.01807C9.55951 8.01807 7.93061 10.0909 7.21487 11.241C6.93297 11.694 6.93297 12.2825 7.21487 12.7355C7.93061 13.8856 9.55951 15.9584 12.0034 15.9584C14.4474 15.9584 16.0763 13.8856 16.792 12.7355C17.0739 12.2825 17.0739 11.694 16.792 11.241C16.0763 10.0909 14.4474 8.01807 12.0034 8.01807ZM9.78851 10.2009C9.13474 10.7404 8.63542 11.4188 8.31861 11.9279C8.31114 11.9399 8.30345 11.9606 8.30345 11.9883C8.30345 12.0159 8.31114 12.0366 8.31861 12.0486C8.63542 12.5577 9.13474 13.2361 9.78851 13.7756C10.4356 14.3096 11.171 14.6584 12.0034 14.6584C12.8359 14.6584 13.5712 14.3096 14.2184 13.7756C14.8722 13.2361 15.3715 12.5577 15.6883 12.0486C15.6958 12.0366 15.7034 12.0159 15.7034 11.9883C15.7034 11.9606 15.6958 11.9399 15.6883 11.9279C15.3715 11.4188 14.8722 10.7404 14.2184 10.2009C13.5712 9.66689 12.8359 9.31807 12.0034 9.31807C11.171 9.31807 10.4356 9.66689 9.78851 10.2009ZM13.7339 12C13.7339 12.9576 12.9576 13.7338 12.0001 13.7338C11.0425 13.7338 10.2663 12.9576 10.2663 12C10.2663 11.0425 11.0425 10.2662 12.0001 10.2662C12.9576 10.2662 13.7339 11.0425 13.7339 12Z"/></svg>

<svg xmlns="http://www.w3.org/2000/svg" fill="none" viewBox="0 0 24 24" focusable="false"><path fill="#74767B" fill-rule="evenodd" d="M20 6c0-1.66-1.35-3-3-3H7C5.35 3 4 4.34 4 6v12c0 1.65 1.35 3 3 3h10c1.65 0 3-1.35 3-3zm-8 2.01c-2.45 0-4.07 2.08-4.79 3.23-.28.45-.28 1.04 0 1.49.72 1.15 2.34 3.22 4.79 3.22 2.44 0 4.07-2.07 4.79-3.22.28-.45.28-1.04 0-1.49-.72-1.15-2.35-3.23-4.79-3.23m-3.69 3.91c.32-.51.82-1.18 1.47-1.72s1.39-.89 2.22-.89 1.57.35 2.21.89c.66.54 1.16 1.21 1.47 1.72.01.01.02.04.02.06 0 .03-.01.05-.02.06-.31.51-.81 1.19-1.47 1.73-.64.53-1.38.88-2.21.88s-1.57-.35-2.22-.88c-.65-.54-1.15-1.22-1.47-1.73 0-.01-.01-.03-.01-.06 0-.02.01-.05.01-.06M12 13.73c.95 0 1.73-.78 1.73-1.73 0-.96-.78-1.74-1.73-1.74-.96 0-1.74.78-1.74 1.74 0 .95.78 1.73 1.74 1.73"/></svg>
